X:604
T:Tormaid
S:Session/Sarah Northcott
Z:Nigel Gatherer
L:1/8
M:4/4
K:Amix
c<A A2 G>A B2 | c<A A2 e>f e2 | c<A A2 G>AB>f | e>cd>B c<A A2 :|
c2  cA B>c d2 | c2  c2 e>f e2 | c2 c<A B>cd>f | e>cd>B c<A A2 :|
<end>
<start>
